X:543
T: GESTERN ABEND IN DER STILLEN RUH
N: E0522C
O: Europa, Mitteleuropa, Deutschland, Westerwald; Lahnkreis; Dillkreis
R: Liebes - Lied
M: 2/4
L: 1/16
K: F
 | F2A2F2A2 | F2ABc3A | A4G4
G2G2G2G2 | G2d2c3d | c4A4
c2A2A2A2A2c2 | B2G2G2G2G2
C2 | F2A2F2A2 | F2Acc2A2 | A4G2
d2c3d | c4A4

